public/logos/KE.svg

<?xml version="1.0" encoding="UTF-8"?>
<svg xmlns="http://www.w3.org/2000/svg" xmlns:xlink="http://www.w3.org/1999/xlink" width="176pt" height="20.61pt" viewBox="0 0 176 20.61" version="1.1">
<defs>
<clipPath id="clip1">
  <path d="M 20 0 L 41 0 L 41 20.609375 L 20 20.609375 Z M 20 0 "/>
</clipPath>
<clipPath id="clip2">
  <path d="M 0 1 L 40 1 L 40 20.609375 L 0 20.609375 Z M 0 1 "/>
</clipPath>
</defs>
<g id="surface1">
<path style=" stroke:none;fill-rule:evenodd;fill:rgb(14.250183%,29.429626%,64.910889%);fill-opacity:1;" d="M 82.539062 10.90625 C 82.539062 10.90625 83.691406 8.207031 84.1875 7.429688 C 84.1875 7.429688 85.585938 9.355469 86.082031 10.9375 C 86.082031 10.9375 84.496094 11.1875 82.539062 10.90625 Z M 49.679688 8.859375 L 49.679688 5.816406 C 49.679688 5.816406 49.710938 3.546875 51.511719 3.546875 C 53.316406 3.546875 53.085938 5.75 53.101562 6.03125 C 53.117188 6.3125 53.003906 8.859375 49.679688 8.859375 Z M 55.300781 1.25 C 55.300781 1.25 46.542969 1.902344 41.824219 1.464844 C 41.824219 1.464844 41.265625 1.308594 41.109375 1.964844 C 41.109375 1.964844 40.796875 2.460938 41.292969 2.800781 C 41.792969 3.144531 43.21875 3.980469 43.21875 7.089844 C 43.21875 10.195312 43.21875 13.082031 43.21875 13.082031 C 43.21875 13.082031 43.5 16.375 41.230469 17.617188 C 41.230469 17.617188 40.769531 17.769531 41.015625 18.421875 C 41.015625 18.421875 41.046875 19.011719 41.699219 18.917969 C 42.351562 18.828125 46.015625 18.546875 51.046875 18.886719 C 51.046875 18.886719 51.480469 18.917969 51.605469 18.640625 C 51.730469 18.359375 51.761719 18.328125 51.761719 18.328125 C 51.761719 18.328125 52.195312 17.894531 51.542969 17.460938 C 50.890625 17.027344 49.804688 16.375 49.710938 13.609375 C 49.617188 10.84375 49.710938 10.785156 49.710938 10.785156 L 50.117188 10.785156 C 50.117188 10.785156 51.511719 10.660156 52.445312 12.769531 C 52.445312 12.769531 54.246094 17.121094 54.527344 17.648438 C 54.804688 18.175781 55.335938 19.292969 57.289062 19.105469 C 59.246094 18.917969 68.378906 18.265625 78.066406 19.136719 C 78.066406 19.136719 79.125 19.292969 79.527344 18.265625 C 79.527344 18.265625 81.203125 13.765625 81.609375 13.050781 C 81.609375 13.050781 85.148438 12.957031 87.074219 12.988281 C 87.074219 12.988281 87.789062 14.199219 87.789062 15.660156 C 87.789062 17.121094 86.515625 17.460938 86.515625 17.460938 C 86.515625 17.460938 85.988281 17.679688 86.238281 18.328125 C 86.238281 18.328125 86.328125 18.953125 86.949219 18.886719 C 87.574219 18.828125 93.132812 18.300781 101.515625 18.828125 C 101.515625 18.828125 102.074219 19.042969 102.261719 18.300781 C 102.261719 18.300781 102.605469 17.710938 102.015625 17.429688 C 102.015625 17.429688 99.808594 16.933594 99.808594 13.421875 C 99.808594 9.914062 99.839844 7.429688 99.839844 7.429688 C 99.839844 7.429688 101.515625 9.820312 103.503906 13.390625 C 105.492188 16.964844 106.550781 18.484375 106.550781 18.484375 C 106.550781 18.484375 107.542969 20.410156 109.5 19.386719 C 111.457031 18.359375 113.566406 17.183594 114.777344 16.34375 C 114.777344 16.34375 115.246094 16.125 114.996094 15.535156 L 114.808594 15.164062 C 114.808594 15.164062 114.777344 14.945312 114.128906 14.882812 C 114.128906 14.882812 112.667969 15.226562 112.636719 13.144531 C 112.605469 11.0625 112.511719 8.113281 112.636719 5.101562 C 112.636719 5.101562 112.695312 3.234375 114.40625 2.707031 C 114.40625 2.707031 115.027344 2.644531 114.746094 1.902344 L 114.5625 1.527344 C 114.5625 1.527344 114.5625 1.21875 114.128906 1.28125 C 113.691406 1.339844 111.269531 1.558594 108.691406 1.339844 C 108.691406 1.339844 108.132812 1.339844 108.070312 1.964844 C 108.070312 1.964844 107.914062 2.523438 108.351562 2.707031 C 108.785156 2.894531 110.308594 3.453125 110.398438 5.847656 C 110.492188 8.238281 110.523438 11.558594 110.523438 11.558594 C 110.523438 11.558594 106.980469 6.34375 104.71875 2.335938 C 104.71875 2.335938 104.34375 1.25 103.007812 1.339844 C 101.671875 1.433594 98.472656 1.589844 96.144531 1.371094 C 96.144531 1.371094 95.492188 1.28125 95.398438 2.023438 C 95.398438 2.023438 95.210938 2.675781 95.773438 2.957031 C 95.773438 2.957031 97.636719 4.136719 97.636719 4.542969 C 97.636719 4.945312 97.601562 13.207031 97.601562 13.207031 C 97.601562 13.207031 97.761719 16.589844 96.855469 16.15625 C 96.855469 16.15625 96.332031 16.5 95.054688 14.167969 C 93.78125 11.839844 92.136719 8.515625 89.46875 2.054688 C 89.46875 2.054688 88.90625 0.253906 87.757812 0.253906 C 87.757812 0.253906 87.074219 0.285156 86.359375 0.691406 C 85.648438 1.09375 83.378906 2.367188 81.019531 3.050781 C 81.019531 3.050781 80.398438 3.234375 80.585938 3.859375 C 80.585938 3.859375 80.492188 4.324219 81.175781 4.574219 C 81.855469 4.820312 82.449219 5.101562 82.632812 5.441406 C 82.632812 5.441406 81.917969 7.742188 80.613281 10.101562 C 79.308594 12.460938 77.632812 16.375 72.820312 16.375 L 70.925781 16.375 C 70.925781 16.375 70.429688 16.4375 70.429688 15.753906 C 70.429688 15.070312 70.429688 10.753906 70.429688 10.753906 L 71.671875 10.753906 C 71.671875 10.753906 73.691406 10.316406 74.652344 12.925781 C 74.652344 12.925781 74.839844 13.734375 75.523438 13.421875 C 75.523438 13.421875 76.296875 13.332031 76.234375 12.554688 C 76.171875 11.777344 76.109375 9.664062 76.265625 7.804688 C 76.265625 7.804688 76.328125 7.242188 75.707031 7.121094 C 75.707031 7.121094 75.210938 6.871094 74.839844 7.273438 C 74.464844 7.679688 73.691406 8.640625 71.917969 8.640625 C 70.148438 8.640625 70.460938 8.640625 70.460938 8.640625 L 70.460938 3.980469 C 70.460938 3.980469 70.429688 3.671875 70.644531 3.640625 C 70.863281 3.609375 73.566406 2.957031 75.148438 4.230469 C 76.730469 5.503906 76.828125 6.03125 77.167969 6.5 C 77.167969 6.5 77.476562 7.273438 78.285156 6.746094 C 78.285156 6.746094 78.90625 6.652344 78.597656 5.691406 C 78.285156 4.726562 78.191406 4.386719 77.664062 1.964844 C 77.664062 1.964844 77.570312 0.9375 76.515625 1.03125 C 75.460938 1.125 68.84375 1.902344 62.632812 1.402344 C 62.632812 1.402344 61.980469 1.25 61.855469 1.933594 C 61.855469 1.933594 61.574219 2.398438 62.105469 2.832031 C 62.105469 2.832031 63.9375 3.671875 63.9375 6.902344 C 63.9375 10.132812 63.9375 12.304688 63.9375 12.304688 C 63.9375 12.304688 64.246094 16.589844 62.726562 16.589844 C 62.726562 16.589844 62.074219 16.871094 60.953125 14.667969 C 59.835938 12.460938 59.773438 12.398438 59.773438 12.398438 C 59.773438 12.398438 58.875 9.507812 54.992188 9.386719 C 54.992188 9.386719 60.363281 8.484375 59.867188 4.449219 C 59.867188 4.449219 59.773438 1.371094 55.738281 1.25 L 55.300781 1.25 "/>
<path style=" stroke:none;fill-rule:evenodd;fill:rgb(14.250183%,29.429626%,64.910889%);fill-opacity:1;" d="M 128.539062 7.210938 C 130.214844 9.601562 130.433594 10.722656 130.433594 10.722656 C 129.097656 10.9375 126.890625 10.691406 126.890625 10.691406 C 127.542969 8.949219 128.539062 7.210938 128.539062 7.210938 Z M 142.605469 12.242188 C 142.605469 12.242188 142.730469 16.3125 141.210938 16.03125 C 141.210938 16.03125 140.683594 16.375 139.40625 14.046875 C 138.136719 11.714844 136.488281 8.390625 133.816406 1.933594 C 133.816406 1.933594 133.257812 0.132812 132.109375 0.132812 C 132.109375 0.132812 131.425781 0.160156 130.714844 0.566406 C 129.996094 0.96875 127.730469 2.242188 125.371094 2.925781 C 125.371094 2.925781 124.746094 3.113281 124.9375 3.734375 C 124.9375 3.734375 124.839844 4.199219 125.523438 4.449219 C 126.210938 4.695312 126.800781 4.976562 126.984375 5.316406 C 126.984375 5.316406 126.269531 7.617188 124.96875 9.976562 C 123.660156 12.335938 122.511719 15.785156 119.4375 17.335938 C 119.4375 17.335938 118.84375 17.460938 119.035156 18.175781 C 119.253906 18.980469 119.65625 18.765625 119.65625 18.765625 C 123.226562 18.390625 124.3125 18.703125 125.121094 18.765625 C 125.929688 18.828125 125.804688 18.175781 125.804688 18.175781 C 126.019531 17.769531 125.742188 17.523438 125.742188 17.523438 L 125.398438 17.089844 C 125.398438 17.089844 124.066406 16.746094 125.960938 12.925781 C 125.960938 12.925781 129.5 12.832031 131.425781 12.863281 C 131.425781 12.863281 132.140625 14.074219 132.140625 15.535156 C 132.140625 16.996094 130.867188 17.335938 130.867188 17.335938 C 130.867188 17.335938 130.339844 17.554688 130.589844 18.207031 C 130.589844 18.207031 130.683594 18.828125 131.304688 18.765625 C 131.921875 18.703125 142.234375 18.265625 150.621094 18.792969 C 150.621094 18.792969 151.210938 18.828125 151.363281 18.300781 C 151.363281 18.300781 151.707031 17.648438 151.117188 17.273438 C 151.117188 17.273438 149.472656 16.53125 149.347656 13.890625 C 149.222656 11.25 149.253906 6.25 149.253906 6.25 C 149.253906 6.25 149.128906 3.453125 150.898438 2.585938 C 150.898438 2.585938 151.363281 2.367188 151.117188 1.746094 C 151.117188 1.746094 150.992188 1.15625 150.433594 1.21875 C 149.875 1.28125 144.003906 1.589844 141.242188 1.25 C 141.242188 1.25 140.621094 1.21875 140.496094 1.746094 C 140.496094 1.746094 140.183594 2.242188 140.714844 2.644531 C 141.242188 3.050781 142.605469 3.980469 142.605469 6.871094 C 142.605469 9.757812 142.605469 12.242188 142.605469 12.242188 "/>
<path style=" stroke:none;fill-rule:evenodd;fill:rgb(14.250183%,29.429626%,64.910889%);fill-opacity:1;" d="M 161.988281 8.734375 L 161.988281 5.691406 C 161.988281 5.691406 162.050781 3.425781 163.757812 3.425781 C 165.464844 3.425781 165.496094 5.34375 165.40625 5.972656 C 165.316406 6.597656 165.15625 8.734375 161.988281 8.734375 Z M 167.332031 1 C 167.332031 1 160.496094 1.808594 154.160156 1.1875 C 154.160156 1.1875 153.355469 0.96875 153.261719 1.808594 C 153.261719 1.808594 153.199219 2.367188 153.539062 2.585938 C 153.882812 2.800781 155.277344 3.640625 155.371094 6.558594 C 155.464844 9.476562 155.527344 8.640625 155.464844 12.617188 C 155.464844 12.617188 155.714844 16.4375 153.539062 17.367188 C 153.539062 17.367188 152.980469 17.492188 153.289062 18.300781 C 153.289062 18.300781 153.476562 18.917969 154.007812 18.703125 C 154.007812 18.703125 159.101562 18.359375 163.511719 18.734375 C 163.511719 18.734375 164.007812 18.917969 164.160156 18.265625 C 164.160156 18.265625 164.566406 17.832031 163.945312 17.367188 C 163.324219 16.902344 162.207031 16.09375 162.078125 14.136719 C 161.957031 12.179688 161.988281 10.628906 161.988281 10.628906 L 162.421875 10.628906 C 162.421875 10.628906 163.882812 10.441406 164.875 12.742188 C 165.871094 15.039062 166.554688 16.714844 166.554688 16.714844 C 166.554688 16.714844 167.207031 18.546875 168.261719 19.136719 C 168.261719 19.136719 168.695312 19.539062 170.3125 19.355469 C 170.3125 19.355469 172.949219 19.199219 175.5625 17.988281 C 175.5625 17.988281 176.148438 17.863281 175.964844 17.183594 C 175.964844 17.183594 176.089844 16.652344 175.34375 16.5 C 174.597656 16.34375 174.039062 15.628906 173.511719 14.574219 C 172.980469 13.515625 172.175781 11.964844 172.175781 11.964844 C 172.175781 11.964844 171.089844 9.261719 167.546875 9.230469 C 167.546875 9.230469 172.425781 8.390625 172.425781 4.726562 C 172.425781 1.0625 168.074219 1 168.074219 1 L 167.332031 1 "/>
<g clip-path="url(#clip1)" clip-rule="nonzero">
<path style=" stroke:none;fill-rule:evenodd;fill:rgb(100%,100%,100%);fill-opacity:1;" d="M 40.886719 10.308594 C 40.886719 15.992188 36.277344 20.601562 30.589844 20.601562 C 24.90625 20.601562 20.296875 15.992188 20.296875 10.308594 C 20.296875 4.621094 24.90625 0.0117188 30.589844 0.0117188 C 36.277344 0.0117188 40.886719 4.621094 40.886719 10.308594 "/>
</g>
<path style=" stroke:none;fill-rule:evenodd;fill:rgb(92.939758%,10.978699%,14.118958%);fill-opacity:1;" d="M 35.011719 4.101562 C 38.148438 5.070312 40.425781 7.988281 40.425781 11.441406 C 40.425781 11.941406 40.378906 12.4375 40.285156 12.910156 L 40.277344 12.980469 C 40.035156 14.332031 39.488281 15.582031 38.703125 16.644531 L 38.691406 16.660156 C 40.066406 14.910156 40.886719 12.703125 40.886719 10.304688 C 40.886719 4.613281 36.273438 0.00390625 30.585938 0.00390625 C 27.996094 0.00390625 25.625 0.960938 23.816406 2.539062 L 23.792969 2.5625 C 22.367188 3.867188 21.472656 5.75 21.472656 7.835938 C 21.472656 8.703125 21.625 9.53125 21.90625 10.300781 L 21.921875 10.335938 C 22.636719 11.90625 24.21875 12.996094 26.058594 12.996094 C 28.570312 12.996094 30.601562 10.960938 30.601562 8.453125 L 30.589844 6.5 C 30.589844 5.601562 31.089844 4.816406 31.828125 4.417969 L 31.839844 4.410156 C 32.414062 4.09375 33.078125 3.910156 33.78125 3.910156 C 34.210938 3.910156 34.621094 3.980469 35.007812 4.101562 L 35.011719 4.101562 "/>
<g clip-path="url(#clip2)" clip-rule="nonzero">
<path style=" stroke:none;fill-rule:evenodd;fill:rgb(14.250183%,29.429626%,64.910889%);fill-opacity:1;" d="M 22.703125 16.933594 C 24.59375 19.179688 27.425781 20.609375 30.59375 20.609375 C 33.1875 20.609375 35.554688 19.652344 37.363281 18.074219 L 37.386719 18.054688 C 38.8125 16.746094 39.707031 14.863281 39.707031 12.777344 C 39.707031 11.910156 39.554688 11.082031 39.273438 10.316406 L 39.257812 10.28125 C 38.542969 8.707031 36.960938 7.617188 35.121094 7.617188 C 32.613281 7.617188 30.578125 9.652344 30.578125 12.160156 L 30.589844 14.113281 C 30.589844 15.011719 30.089844 15.796875 29.351562 16.195312 L 29.34375 16.203125 C 28.765625 16.519531 28.105469 16.703125 27.398438 16.703125 C 26.96875 16.703125 26.558594 16.636719 26.171875 16.511719 L 26.167969 16.511719 C 23.03125 15.542969 20.753906 12.625 20.753906 9.171875 C 20.753906 8.671875 20.800781 8.179688 20.894531 7.703125 L 20.90625 7.632812 C 21.144531 6.28125 21.695312 5.03125 22.476562 3.96875 L 22.492188 3.953125 C 21.113281 5.703125 20.292969 7.910156 20.292969 10.308594 C 20.292969 11.964844 20.683594 13.527344 21.375 14.914062 L 21.292969 14.976562 C 21.292969 14.976562 20.890625 15.289062 20.082031 14.355469 C 19.273438 13.421875 14.523438 7.679688 14.523438 7.679688 C 14.523438 7.679688 17.535156 4.449219 20.484375 3.144531 C 20.484375 3.144531 21.261719 2.894531 21.074219 2.210938 L 20.953125 1.808594 C 20.953125 1.808594 20.921875 1.371094 20.234375 1.464844 C 19.554688 1.558594 16.324219 1.808594 13.09375 1.496094 C 13.09375 1.496094 12.597656 1.496094 12.410156 1.902344 C 12.410156 1.902344 12.101562 2.429688 12.410156 2.738281 C 12.722656 3.050781 13.839844 3.828125 13.839844 4.882812 C 13.839844 4.882812 14.089844 5.660156 12.378906 6.902344 C 10.671875 8.144531 9.617188 8.949219 8.902344 9.324219 L 8.929688 6.40625 C 8.929688 6.40625 8.839844 3.949219 10.609375 2.800781 C 10.609375 2.800781 11.042969 2.617188 10.886719 2.210938 L 10.765625 1.902344 C 10.765625 1.902344 10.671875 1.402344 10.144531 1.464844 C 10.144531 1.464844 7.066406 1.808594 0.949219 1.527344 C 0.949219 1.527344 0.546875 1.496094 0.390625 1.808594 L 0.265625 2.054688 C 0.265625 2.054688 0.0507812 2.617188 0.390625 2.863281 C 0.734375 3.113281 2.160156 3.949219 2.222656 6.527344 C 2.222656 6.527344 2.378906 11.40625 2.160156 13.300781 C 1.945312 15.195312 1.789062 16.28125 0.265625 17.617188 C 0.265625 17.617188 -0.136719 17.925781 0.0507812 18.390625 L 0.265625 18.792969 C 0.265625 18.792969 0.421875 19.105469 0.949219 19.042969 C 1.476562 18.980469 5.300781 18.609375 10.144531 18.980469 C 10.144531 18.980469 10.484375 19.105469 10.640625 18.765625 L 10.855469 18.328125 C 10.855469 18.328125 11.105469 17.894531 10.640625 17.554688 C 10.175781 17.214844 8.929688 16.21875 8.902344 14.292969 C 8.871094 12.367188 8.871094 11.15625 8.871094 11.15625 C 8.871094 11.15625 9.707031 11.5 14.179688 18.113281 C 14.179688 18.113281 15.765625 20.96875 19.121094 19.199219 C 19.121094 19.199219 21.574219 17.863281 22.597656 16.996094 L 22.703125 16.933594 "/>
</g>
</g>
</svg>

<svg xmlns="http://www.w3.org/2000/svg" width="176pt" height="27.48" viewBox="0 0 176 20.61"><defs><clipPath id="a"><path d="M20 0h21v20.61H20Zm0 0"/></clipPath><clipPath id="b"><path d="M0 1h40v19.61H0Zm0 0"/></clipPath></defs><path d="M82.54 10.906s1.151-2.699 1.647-3.476c0 0 1.399 1.925 1.895 3.508 0 0-1.586.25-3.543-.032M49.68 8.86V5.816s.03-2.27 1.832-2.27c1.804 0 1.574 2.204 1.59 2.485.015.282-.098 2.828-3.422 2.828M55.3 1.25s-8.757.652-13.476.215c0 0-.558-.156-.715.5 0 0-.312.496.184.836.5.344 1.926 1.18 1.926 4.289v5.992s.281 3.293-1.989 4.535c0 0-.46.153-.214.805 0 0 .03.59.683.496.653-.09 4.317-.371 9.348-.031 0 0 .433.031.558-.246.125-.282.157-.313.157-.313s.433-.433-.219-.867-1.738-1.086-1.832-3.852 0-2.824 0-2.824h.406s1.395-.125 2.328 1.985c0 0 1.801 4.351 2.082 4.878.278.528.809 1.645 2.762 1.457 1.957-.187 11.09-.84 20.777.032 0 0 1.059.156 1.461-.871 0 0 1.676-4.5 2.082-5.215 0 0 3.54-.094 5.465-.063 0 0 .715 1.211.715 2.672a1.82 1.82 0 0 1-1.273 1.8s-.528.22-.278.868c0 0 .09.625.711.559.625-.059 6.184-.586 14.567-.059 0 0 .558.215.746-.527 0 0 .343-.59-.246-.871 0 0-2.207-.496-2.207-4.008 0-3.508.03-5.992.03-5.992s1.677 2.39 3.665 5.96c1.988 3.575 3.047 5.094 3.047 5.094s.992 1.926 2.949.903c1.957-1.028 4.066-2.203 5.277-3.043 0 0 .47-.219.22-.809l-.188-.37s-.032-.22-.68-.282c0 0-1.461.344-1.492-1.738-.032-2.082-.125-5.032 0-8.043 0 0 .058-1.868 1.77-2.395 0 0 .62-.062.34-.805l-.184-.375s0-.308-.434-.246c-.438.059-2.86.278-5.438.059 0 0-.558 0-.62.625 0 0-.157.558.28.742.434.188 1.958.746 2.047 3.14.094 2.391.125 5.712.125 5.712s-3.543-5.215-5.804-9.223c0 0-.375-1.086-1.711-.996-1.336.094-4.535.25-6.863.031 0 0-.653-.09-.747.652 0 0-.187.653.375.934 0 0 1.864 1.18 1.864 1.586 0 .402-.035 8.664-.035 8.664s.16 3.383-.747 2.95c0 0-.523.343-1.8-1.989-1.274-2.328-2.918-5.652-5.586-12.113 0 0-.563-1.801-1.711-1.801 0 0-.684.031-1.399.437-.71.403-2.98 1.676-5.34 2.36 0 0-.62.183-.433.808 0 0-.094.465.59.715.68.246 1.273.528 1.457.867 0 0-.715 2.301-2.02 4.66-1.304 2.36-2.98 6.274-7.793 6.274h-1.894s-.496.063-.496-.621v-5h1.242s2.02-.438 2.98 2.172c0 0 .188.808.871.496 0 0 .774-.09.711-.867-.062-.778-.125-2.89.032-4.75 0 0 .062-.563-.559-.684 0 0-.496-.25-.867.152-.375.407-1.149 1.368-2.922 1.368h-1.457V3.98s-.031-.31.184-.34c.218-.032 2.921-.684 4.503.59 1.582 1.273 1.68 1.8 2.02 2.269 0 0 .309.773 1.117.246 0 0 .621-.094.313-1.055-.313-.964-.407-1.304-.934-3.726 0 0-.094-1.027-1.148-.934-1.055.094-7.672.871-13.883.371 0 0-.653-.152-.778.532 0 0-.28.464.25.898 0 0 1.833.84 1.833 4.07v5.403s.308 4.285-1.211 4.285c0 0-.653.281-1.774-1.922-1.117-2.207-1.18-2.27-1.18-2.27s-.898-2.89-4.78-3.011c0 0 5.37-.903 4.874-4.938 0 0-.094-3.078-4.129-3.199zM128.54 7.21c1.675 2.392 1.894 3.513 1.894 3.513-1.336.214-3.543-.032-3.543-.032.652-1.742 1.648-3.48 1.648-3.48m14.065 5.032s.125 4.07-1.394 3.79c0 0-.527.343-1.805-1.985-1.27-2.332-2.918-5.656-5.59-12.113 0 0-.558-1.801-1.707-1.801 0 0-.683.027-1.394.433-.719.403-2.985 1.676-5.344 2.36 0 0-.625.187-.433.808 0 0-.098.465.585.715.688.246 1.278.528 1.461.867 0 0-.714 2.301-2.015 4.66-1.309 2.36-2.457 5.81-5.531 7.36 0 0-.594.125-.403.84.219.804.621.59.621.59 3.57-.375 4.656-.063 5.465 0 .809.062.684-.59.684-.59.215-.406-.063-.653-.063-.653l-.344-.433s-1.332-.344.563-4.164c0 0 3.539-.094 5.465-.063 0 0 .715 1.211.715 2.672a1.82 1.82 0 0 1-1.274 1.8s-.527.22-.277.872c0 0 .094.621.715.559.617-.063 10.93-.5 19.316.027 0 0 .59.035.742-.492 0 0 .344-.653-.246-1.028 0 0-1.644-.742-1.77-3.382-.124-2.641-.093-7.641-.093-7.641s-.125-2.797 1.644-3.664c0 0 .465-.219.22-.84 0 0-.126-.59-.684-.527-.559.062-6.43.37-9.192.031 0 0-.62-.031-.746.496 0 0-.312.496.219.899.527.406 1.89 1.335 1.89 4.226zM161.988 8.734V5.691s.063-2.265 1.77-2.265 1.738 1.918 1.648 2.547c-.09.625-.25 2.761-3.418 2.761M167.332 1s-6.836.809-13.172.188c0 0-.805-.22-.898.62 0 0-.063.56.277.778.344.215 1.738 1.055 1.832 3.973s.156 2.082.094 6.058c0 0 .25 3.82-1.926 4.75 0 0-.559.125-.25.934 0 0 .188.617.719.402 0 0 5.094-.344 9.504.031 0 0 .496.184.648-.468 0 0 .406-.434-.215-.899-.62-.465-1.738-1.273-1.867-3.23-.121-1.957-.09-3.508-.09-3.508h.434s1.46-.188 2.453 2.113c.996 2.297 1.68 3.973 1.68 3.973s.652 1.832 1.707 2.422c0 0 .433.402 2.05.218 0 0 2.637-.156 5.25-1.367 0 0 .586-.125.403-.804 0 0 .125-.532-.621-.684-.746-.156-1.305-.871-1.832-1.926-.532-1.058-1.336-2.61-1.336-2.61s-1.086-2.702-4.63-2.734c0 0 4.88-.84 4.88-4.503 0-3.665-4.352-3.727-4.352-3.727z" style="stroke:none;fill-rule:evenodd;fill:#244ba6;fill-opacity:1"/><g clip-path="url(#a)"><path d="M40.887 10.309c0 5.683-4.61 10.293-10.297 10.293-5.684 0-10.293-4.61-10.293-10.293C20.297 4.62 24.907.012 30.59.012c5.687 0 10.297 4.61 10.297 10.297" style="stroke:none;fill-rule:evenodd;fill:#fff;fill-opacity:1"/></g><path d="M35.012 4.102a7.683 7.683 0 0 1 5.273 8.808l-.008.07a8.76 8.76 0 0 1-1.574 3.665l-.012.015a10.25 10.25 0 0 0 2.196-6.355c0-5.692-4.614-10.301-10.301-10.301-2.59 0-4.961.957-6.77 2.535l-.023.023a7.13 7.13 0 0 0-2.32 5.274c0 .867.152 1.695.433 2.465l.016.035a4.54 4.54 0 0 0 4.137 2.66 4.54 4.54 0 0 0 4.543-4.543L30.59 6.5c0-.898.5-1.684 1.238-2.082l.012-.008a4.02 4.02 0 0 1 3.168-.308z" style="stroke:none;fill-rule:evenodd;fill:#ed1c24;fill-opacity:1"/><g clip-path="url(#b)"><path d="M22.703 16.934a10.29 10.29 0 0 0 7.89 3.675c2.595 0 4.962-.957 6.77-2.535l.024-.02a7.15 7.15 0 0 0 2.32-5.277c0-.867-.152-1.695-.434-2.46l-.015-.036a4.545 4.545 0 0 0-8.68 1.879l.012 1.953c0 .899-.5 1.684-1.238 2.082l-.008.008a4.04 4.04 0 0 1-3.172.309h-.004a7.683 7.683 0 0 1-5.273-8.809l.011-.07a8.76 8.76 0 0 1 1.57-3.664l.016-.016a10.23 10.23 0 0 0-2.199 6.356c0 1.656.39 3.218 1.082 4.605l-.082.063s-.402.312-1.211-.622-5.559-6.675-5.559-6.675 3.012-3.23 5.961-4.535c0 0 .778-.25.59-.934l-.12-.402s-.032-.438-.72-.344c-.68.094-3.91.344-7.14.031 0 0-.496 0-.684.406 0 0-.308.528 0 .836.313.313 1.43 1.09 1.43 2.145 0 0 .25.777-1.461 2.02-1.707 1.242-2.762 2.046-3.477 2.421l.028-2.918s-.09-2.457 1.68-3.605c0 0 .433-.184.277-.59l-.121-.309s-.094-.5-.621-.437c0 0-3.079.344-9.196.062 0 0-.402-.03-.558.282l-.125.246s-.215.562.125.808c.343.25 1.77 1.086 1.832 3.664 0 0 .156 4.88-.063 6.774-.215 1.894-.37 2.98-1.894 4.316 0 0-.403.309-.215.774l.215.402s.156.312.683.25c.528-.063 4.352-.434 9.196-.063 0 0 .34.125.496-.214l.214-.438s.25-.433-.214-.773c-.465-.34-1.711-1.336-1.739-3.262-.03-1.926-.03-3.137-.03-3.137s.835.344 5.308 6.957c0 0 1.586 2.856 4.941 1.086 0 0 2.453-1.336 3.477-2.203z" style="stroke:none;fill-rule:evenodd;fill:#244ba6;fill-opacity:1"/></g></svg>
